svg/users.svg

<svg width="284" height="284" viewBox="0 0 284 284" fill="none" xmlns="http://www.w3.org/2000/svg">
<path fill-rule="evenodd" clip-rule="evenodd" d="M220.073 144.687C228.724 138.084 234.346 127.484 234.346 115.551C234.346 95.5805 218.607 79.3335 199.261 79.3335C199.06 79.3335 198.862 79.3455 198.662 79.3485C198.632 83.1095 198.495 86.8965 198.342 90.6965C198.647 90.6845 198.953 90.6715 199.261 90.6715C212.355 90.6715 223.009 101.832 223.009 115.551C223.009 129.27 212.355 140.431 199.261 140.431C186.167 140.431 175.512 129.27 175.512 115.551C175.512 102.155 185.673 91.2055 198.342 90.6965C198.495 86.8965 198.632 83.1095 198.662 79.3485C179.591 79.6815 164.175 95.7885 164.175 115.551C164.175 127.548 169.859 138.197 178.59 144.791C174.98 146.68 171.579 149.256 168.021 152.663C165.76 154.829 165.683 158.418 167.848 160.68C170.015 162.939 173.603 163.018 175.865 160.853C183.132 153.892 188.73 151.77 199.826 151.77C221.791 151.77 239.961 170.075 242.505 193.608H194.62C191.489 193.608 188.951 196.146 188.951 199.277C188.951 202.408 191.489 204.946 194.62 204.946H248.478C251.609 204.946 254.147 202.408 254.147 199.277C254.147 174.58 240.024 153.403 220.073 144.687Z" fill="#1A1919"/>
<path fill-rule="evenodd" clip-rule="evenodd" d="M180.219 223.545C180.022 187.547 158.205 157.026 128.191 146.511C142.409 137.991 152 122.096 152 103.917C152 76.8174 130.702 54.7674 104.504 54.7134C104.503 58.4894 104.5 62.2654 104.496 66.0524C124.446 66.1024 140.662 83.0674 140.662 103.917C140.662 124.797 124.399 141.784 104.409 141.784C104.188 141.784 103.97 141.771 103.75 141.766C103.655 145.84 103.541 149.906 103.421 153.971C104.018 153.952 104.613 153.923 105.214 153.923C138.587 153.923 166.045 182.351 168.676 218.372H41.7551C44.3371 183 70.8651 154.97 103.421 153.971C103.541 149.906 103.655 145.84 103.75 141.766C84.0631 141.397 68.1531 124.566 68.1531 103.917C68.1531 83.0374 84.4181 66.0504 104.409 66.0504C104.439 66.0504 104.467 66.0524 104.496 66.0524C104.5 62.2654 104.503 58.4894 104.504 54.7134C104.472 54.7134 104.441 54.7114 104.409 54.7114C78.1651 54.7114 56.8141 76.7854 56.8141 103.917C56.8141 122.357 66.6821 138.452 81.2401 146.877C51.6081 157.765 30.2101 188.231 30.2101 224.041C30.2101 227.172 32.7481 229.71 35.8791 229.71H174.551C174.558 229.711 174.566 229.711 174.571 229.71C177.702 229.71 180.24 227.172 180.24 224.041C180.24 223.874 180.233 223.709 180.219 223.545Z" fill="#1A1919"/>
</svg>

<svg width="284" height="284" viewBox="0 0 284 284" xmlns="http://www.w3.org/2000/svg">
    <g fill="#1A1918" fill-rule="evenodd">
        <path d="M220.073 144.688c8.65-6.603 14.273-17.203 14.273-29.136 0-19.971-15.74-36.218-35.085-36.218-.201 0-.4.012-.6.015-.03 3.76-.166 7.548-.32 11.348.306-.012.612-.025.92-.025 13.094 0 23.748 11.16 23.748 24.88 0 13.719-10.654 24.88-23.748 24.88-13.094 0-23.75-11.161-23.75-24.88 0-13.396 10.162-24.346 22.83-24.855.154-3.8.29-7.587.32-11.348-19.07.333-34.486 16.44-34.486 36.203 0 11.997 5.684 22.646 14.415 29.24-3.61 1.889-7.011 4.465-10.57 7.872a5.672 5.672 0 0 0-.172 8.017 5.674 5.674 0 0 0 8.017.173c7.267-6.961 12.865-9.083 23.96-9.083 21.966 0 40.136 18.305 42.68 41.838H194.62a5.669 5.669 0 1 0 0 11.338h53.858a5.669 5.669 0 0 0 5.669-5.67c0-24.696-14.123-45.873-34.074-54.59"/>
        <path d="M180.22 223.546c-.198-35.998-22.015-66.52-52.029-77.034 14.218-8.52 23.81-24.415 23.81-42.594 0-27.1-21.299-49.15-47.497-49.204 0 3.776-.004 7.552-.008 11.339 19.95.05 36.166 17.015 36.166 37.865 0 20.88-16.263 37.867-36.253 37.867-.22 0-.439-.013-.659-.018-.095 4.074-.209 8.14-.329 12.205.597-.02 1.192-.048 1.793-.048 33.373 0 60.831 28.428 63.462 64.449H41.756c2.581-35.372 29.11-63.402 61.665-64.401.12-4.065.234-8.131.33-12.205-19.688-.37-35.598-17.2-35.598-37.85 0-20.88 16.265-37.866 36.256-37.866l.087.002c.004-3.787.007-7.563.008-11.34l-.095-.001c-26.244 0-47.595 22.074-47.595 49.206 0 18.44 9.868 34.535 24.426 42.96-29.632 10.888-51.03 41.354-51.03 77.164a5.669 5.669 0 0 0 5.67 5.669H174.55a5.669 5.669 0 0 0 5.668-6.165"/>
    </g>
</svg>
